X:2328
T:GOWFRWL- Farewell to Whiskey...by Niel Gow
O:england
S:Strathspey Reels, 5th bk (1809)
N:"This tune alludes to prohibiting the making of Whisky in 1799
N:It is expressive of a Highlanders' sorrow on being deprived
N:of his Favorite Beverage."
Q:1/4=100
L:1/8
M:C
K:Bb
D|B,2 "tr"(B/A/B/).d/ cG G3/2B/|\
B,3/2B/ {d/}(c/B/c/).d/ fd~d3/2f/|\
(ga/b/) (g/f/)(e/d/) (e/d/)(c/B/) cd|B,3/2B/ (d/c/).B/.c/ dBB::\
g|{g/}f3/2d/ {d/}b3/2d/ (e/d/)c/B/ ~cd|fdb3/2d/ f(bb3/2)f/|\
(gb) {g/}f3/2d/ e/d/c/B/ (cd)|B,3/2B/ ((d/c/)B/c/ dBB:|]


